public/assets/mission-card-down-decor.svg

<svg width="78" height="73" viewBox="0 0 78 73" fill="none" xmlns="http://www.w3.org/2000/svg">
<path d="M45.1999 29.5764C44.653 29.5764 44.1284 29.7926 43.7417 30.1775C43.355 30.5624 43.1377 31.0844 43.1377 31.6287C43.1377 32.173 43.355 32.6951 43.7417 33.08C44.1284 33.4649 44.653 33.6811 45.1999 33.6811H55.7615C55.9358 34.6404 56.0241 35.6133 56.0255 36.5882C56.0089 37.4516 55.9024 38.311 55.7078 39.1526H45.1999C44.669 39.1772 44.168 39.4044 43.8011 39.787C43.4341 40.1696 43.2293 40.6782 43.2293 41.2072C43.2293 41.7361 43.4341 42.2447 43.8011 42.6273C44.168 43.0099 44.669 43.2372 45.1999 43.2618L54.4956 43.2617C53.8827 44.9758 53.1178 46.8233 52.2589 48.7332H45.1999C44.653 48.7332 44.1284 48.9495 43.7417 49.3344C43.355 49.7192 43.1377 50.2413 43.1377 50.7856C43.1377 51.3299 43.355 51.8519 43.7417 52.2368C44.1284 52.6217 44.653 52.838 45.1999 52.838H50.313C49.4183 54.6855 48.4431 56.5331 47.4903 58.3139H45.1999C44.653 58.3139 44.1284 58.5301 43.7417 58.915C43.355 59.2999 43.1377 59.8219 43.1377 60.3663C43.1377 60.9106 43.355 61.4326 43.7417 61.8175C44.1284 62.2024 44.653 62.4186 45.1999 62.4186H45.2446C42.1133 68.0059 39.5277 72.1685 39.5277 72.1685C39.5277 72.1685 36.9376 68.0059 33.8107 62.4186H33.8555C34.4024 62.4186 34.9269 62.2024 35.3137 61.8175C35.7004 61.4326 35.9177 60.9106 35.9177 60.3663C35.9177 59.8219 35.7004 59.2999 35.3137 58.915C34.9269 58.5301 34.4024 58.3139 33.8555 58.3139H31.5606C30.6078 56.5331 29.6505 54.6855 28.7424 52.838L33.8555 52.838C34.4024 52.838 34.9269 52.6217 35.3137 52.2368C35.7004 51.8519 35.9177 51.3299 35.9177 50.7856C35.9177 50.2413 35.7004 49.7192 35.3137 49.3344C34.9269 48.9495 34.4024 48.7332 33.8555 48.7332H26.792C25.9331 46.8278 25.1682 44.9758 24.5553 43.2618L33.8555 43.2618C34.3864 43.2372 34.8873 43.0099 35.2543 42.6273C35.6213 42.2447 35.826 41.7361 35.826 41.2072C35.826 40.6782 35.6213 40.1696 35.2543 39.787C34.8873 39.4044 34.3864 39.1772 33.8555 39.1526L23.3431 39.1526C23.1507 38.3106 23.0443 37.4515 23.0254 36.5882C23.0268 35.6133 23.1151 34.6404 23.2894 33.6811L33.8555 33.6811C34.4024 33.6811 34.9269 33.4649 35.3137 33.08C35.7004 32.6951 35.9177 32.173 35.9177 31.6287C35.9177 31.0844 35.7004 30.5624 35.3137 30.1775C34.9269 29.7926 34.4024 29.5764 33.8555 29.5764H24.6045C25.9404 26.7623 28.0521 24.384 30.6938 22.7184C33.3354 21.0528 36.3983 20.1685 39.5254 20.1685C42.6526 20.1685 45.7155 21.0528 48.3571 22.7184C50.9988 24.384 53.1105 26.7623 54.4464 29.5764H45.1999Z" fill="#AECC53"/>
<path d="M16.5271 16.0767C16.2985 15.9067 16.0121 15.8341 15.7309 15.8748C15.4497 15.9155 15.1967 16.0661 15.0275 16.2936C14.8584 16.5211 14.787 16.8067 14.829 17.0878C14.871 17.3688 15.023 17.6221 15.2516 17.7921L19.6654 21.0739C19.4401 21.529 19.1747 21.963 18.8724 22.3708C18.5971 22.7265 18.2856 23.0526 17.9428 23.3438L13.5514 20.0787C13.3219 19.924 13.042 19.8633 12.7697 19.9091C12.4975 19.955 12.2539 20.1039 12.0895 20.325C11.9251 20.546 11.8527 20.8222 11.8871 21.0961C11.9216 21.3701 12.0604 21.6207 12.2746 21.7959L16.1593 24.6844C15.3706 25.2103 14.4768 25.7447 13.5244 26.2759L10.5744 24.0825C10.3459 23.9126 10.0595 23.8399 9.77824 23.8806C9.49701 23.9213 9.24401 24.0719 9.07487 24.2994C8.90573 24.5269 8.83432 24.8126 8.87634 25.0936C8.91836 25.3746 9.07038 25.628 9.29895 25.7979L11.4357 27.3867C10.4877 27.8808 9.50611 28.3499 8.55456 28.798L7.5974 28.0863C7.36883 27.9164 7.08244 27.8438 6.80122 27.8844C6.52 27.9251 6.26699 28.0758 6.09785 28.3032C5.92871 28.5307 5.8573 28.8164 5.89932 29.0974C5.94135 29.3784 6.09336 29.6318 6.32193 29.8017L6.34063 29.8156C3.29587 31.1776 0.921875 32.1137 0.921875 32.1137C0.921875 32.1137 1.13291 29.5693 1.5623 26.2628L1.58099 26.2767C1.80956 26.4466 2.09596 26.5192 2.37718 26.4786C2.6584 26.4379 2.91141 26.2872 3.08055 26.0598C3.24969 25.8323 3.3211 25.5466 3.27908 25.2656C3.23705 24.9846 3.08503 24.7312 2.85646 24.5613L1.89743 23.8482C2.05259 22.8079 2.22662 21.7383 2.42122 20.684L4.55802 22.2728C4.78658 22.4428 5.07298 22.5154 5.3542 22.4747C5.63542 22.434 5.88843 22.2834 6.05757 22.0559C6.2267 21.8284 6.29812 21.5428 6.2561 21.2617C6.21407 20.9807 6.06206 20.7274 5.83349 20.5574L2.88161 18.3626C3.11476 17.2994 3.37057 16.2877 3.64705 15.381L7.53365 18.2708C7.76316 18.4255 8.04312 18.4862 8.31537 18.4404C8.58762 18.3945 8.83124 18.2456 8.9956 18.0245C9.15996 17.8035 9.23242 17.5273 9.19796 17.2534C9.16349 16.9795 9.02473 16.7288 8.8105 16.5536L4.41728 13.287C4.59852 12.8754 4.82101 12.4833 5.08137 12.1167C5.38488 11.7097 5.7241 11.3306 6.09502 10.9838L10.5107 14.267C10.7392 14.437 11.0256 14.5096 11.3069 14.4689C11.5881 14.4282 11.8411 14.2776 12.0102 14.0501C12.1794 13.8226 12.2508 13.537 12.2088 13.2559C12.1667 12.9749 12.0147 12.7215 11.7861 12.5516L7.9201 9.67704C9.35276 8.91613 10.9743 8.57838 12.5958 8.70316C14.2174 8.82793 15.7721 9.41009 17.079 10.3818C18.3859 11.3535 19.3911 12.6748 19.9775 14.1917C20.5639 15.7087 20.7074 17.3588 20.3912 18.9499L16.5271 16.0767Z" fill="#AECC53"/>
<path d="M61.4728 16.0767C61.7014 15.9067 61.9878 15.8341 62.269 15.8748C62.5502 15.9155 62.8032 16.0661 62.9723 16.2936C63.1415 16.5211 63.2129 16.8067 63.1709 17.0878C63.1289 17.3688 62.9768 17.6221 62.7483 17.7921L58.3345 21.0739C58.5598 21.529 58.8252 21.963 59.1275 22.3708C59.4027 22.7265 59.7143 23.0526 60.0571 23.3438L64.4484 20.0787C64.6779 19.924 64.9579 19.8633 65.2302 19.9091C65.5024 19.955 65.746 20.1039 65.9104 20.325C66.0747 20.546 66.1472 20.8222 66.1127 21.0961C66.0783 21.3701 65.9395 21.6207 65.7253 21.7959L61.8406 24.6844C62.6293 25.2103 63.523 25.7447 64.4754 26.2759L67.4255 24.0825C67.654 23.9126 67.9404 23.8399 68.2216 23.8806C68.5029 23.9213 68.7559 24.0719 68.925 24.2994C69.0941 24.5269 69.1656 24.8126 69.1235 25.0936C69.0815 25.3746 68.9295 25.628 68.7009 25.7979L66.5641 27.3867C67.5121 27.8808 68.4938 28.3499 69.4453 28.798L70.4025 28.0863C70.631 27.9164 70.9174 27.8438 71.1987 27.8844C71.4799 27.9251 71.7329 28.0758 71.902 28.3032C72.0712 28.5307 72.1426 28.8164 72.1006 29.0974C72.0585 29.3784 71.9065 29.6318 71.6779 29.8017L71.6592 29.8156C74.704 31.1776 77.078 32.1137 77.078 32.1137C77.078 32.1137 76.867 29.5693 76.4376 26.2628L76.4189 26.2767C76.1903 26.4466 75.9039 26.5192 75.6227 26.4786C75.3415 26.4379 75.0885 26.2872 74.9193 26.0598C74.7502 25.8323 74.6788 25.5466 74.7208 25.2656C74.7628 24.9846 74.9148 24.7312 75.1434 24.5613L76.1024 23.8482C75.9473 22.8079 75.7733 21.7383 75.5787 20.684L73.4419 22.2728C73.2133 22.4428 72.9269 22.5154 72.6457 22.4747C72.3645 22.434 72.1114 22.2834 71.9423 22.0559C71.7732 21.8284 71.7018 21.5428 71.7438 21.2617C71.7858 20.9807 71.9378 20.7274 72.1664 20.5574L75.1183 18.3626C74.8851 17.2994 74.6293 16.2877 74.3528 15.381L70.4662 18.2708C70.2367 18.4255 69.9567 18.4862 69.6845 18.4404C69.4123 18.3945 69.1686 18.2456 69.0043 18.0245C68.8399 17.8035 68.7674 17.5273 68.8019 17.2534C68.8364 16.9795 68.9751 16.7288 69.1894 16.5536L73.5826 13.287C73.4014 12.8754 73.1789 12.4833 72.9185 12.1167C72.615 11.7097 72.2758 11.3306 71.9049 10.9838L67.4892 14.267C67.2606 14.437 66.9742 14.5096 66.693 14.4689C66.4118 14.4282 66.1588 14.2776 65.9897 14.0501C65.8205 13.8226 65.7491 13.537 65.7911 13.2559C65.8331 12.9749 65.9852 12.7215 66.2137 12.5516L70.0798 9.67704C68.6471 8.91613 67.0256 8.57838 65.404 8.70316C63.7825 8.82793 62.2277 9.41009 60.9209 10.3818C59.614 11.3535 58.6088 12.6748 58.0224 14.1917C57.436 15.7087 57.2925 17.3588 57.6086 18.9499L61.4728 16.0767Z" fill="#AECC53"/>
<path d="M45.0255 6.96448C45.0255 3.65077 42.3392 0.964478 39.0255 0.964478C35.7117 0.964478 33.0255 3.65077 33.0255 6.96448C33.0255 10.2782 35.7117 12.9645 39.0255 12.9645C42.3392 12.9645 45.0255 10.2782 45.0255 6.96448Z" fill="#AECC53"/>
</svg>

<svg xmlns="http://www.w3.org/2000/svg" width="78" height="73" fill="none" viewBox="0 0 78 73"><path fill="#aecc53" d="M45.2 29.576c-.547 0-1.072.217-1.458.601a2.05 2.05 0 0 0 0 2.903c.386.385.911.601 1.458.601h10.56c.175.96.263 1.932.264 2.907a12.5 12.5 0 0 1-.317 2.565H45.2a2.07 2.07 0 0 0-1.399.634 2.05 2.05 0 0 0 0 2.84c.367.383.868.61 1.399.635h9.296c-.613 1.714-1.378 3.561-2.237 5.471h-7.06a2.07 2.07 0 0 0-1.457.601 2.047 2.047 0 0 0 0 2.903c.386.385.911.601 1.458.601h5.113c-.895 1.847-1.87 3.695-2.823 5.476H45.2c-.547 0-1.072.216-1.458.601a2.05 2.05 0 0 0 0 2.903c.386.384.911.6 1.458.6h.045a279 279 0 0 1-5.717 9.75s-2.59-4.162-5.717-9.75h.044c.547 0 1.072-.216 1.459-.6a2.05 2.05 0 0 0 0-2.903 2.07 2.07 0 0 0-1.459-.601h-2.294a180 180 0 0 1-2.819-5.476h5.113c.547 0 1.072-.216 1.459-.601a2.05 2.05 0 0 0 0-2.903 2.07 2.07 0 0 0-1.459-.6h-7.063c-.859-1.906-1.624-3.758-2.237-5.472h9.3a2.07 2.07 0 0 0 1.4-.635 2.05 2.05 0 0 0 0-2.84 2.07 2.07 0 0 0-1.4-.634H23.344a12.8 12.8 0 0 1-.318-2.565c.002-.975.09-1.948.264-2.907h10.566c.547 0 1.072-.216 1.459-.601a2.05 2.05 0 0 0 0-2.902 2.07 2.07 0 0 0-1.459-.602h-9.25a16.45 16.45 0 0 1 6.089-6.858 16.56 16.56 0 0 1 8.831-2.55c3.128 0 6.19.885 8.832 2.55a16.45 16.45 0 0 1 6.09 6.858zM16.527 16.077a1.08 1.08 0 0 0-.796-.202 1.066 1.066 0 0 0-.48 1.917l4.414 3.282a8.5 8.5 0 0 1-.793 1.297 6.5 6.5 0 0 1-.93.973l-4.39-3.265a1.08 1.08 0 0 0-.782-.17 1.069 1.069 0 0 0-.495 1.887l3.884 2.888a39 39 0 0 1-2.635 1.592l-2.95-2.193a1.08 1.08 0 0 0-.796-.202 1.066 1.066 0 0 0-.48 1.917l2.138 1.589c-.948.494-1.93.963-2.881 1.411l-.958-.712a1.08 1.08 0 0 0-.796-.202 1.067 1.067 0 0 0-.48 1.918l.02.014C3.296 31.178.92 32.114.92 32.114s.212-2.545.641-5.851l.019.014c.229.17.515.242.796.202a1.067 1.067 0 0 0 .48-1.918l-.96-.713a97 97 0 0 1 .524-3.164l2.137 1.589c.229.17.515.242.796.202a1.066 1.066 0 0 0 .48-1.918l-2.952-2.194a39 39 0 0 1 .765-2.982l3.887 2.89a1.068 1.068 0 0 0 1.277-1.717l-4.394-3.267q.274-.62.664-1.17a8.5 8.5 0 0 1 1.014-1.133l4.416 3.283c.228.17.515.243.796.202a1.066 1.066 0 0 0 .48-1.917L7.92 9.677a8.57 8.57 0 0 1 4.676-.974 8.62 8.62 0 0 1 7.381 5.489 8.57 8.57 0 0 1 .414 4.758zm44.946 0c.228-.17.515-.243.796-.202a1.066 1.066 0 0 1 .902 1.213 1.08 1.08 0 0 1-.423.704l-4.413 3.282q.338.684.792 1.297.415.535.93.973l4.391-3.265a1.069 1.069 0 0 1 1.277 1.717l-3.884 2.888c.788.526 1.682 1.06 2.634 1.592l2.95-2.193c.229-.17.515-.243.797-.202a1.066 1.066 0 0 1 .479 1.917l-2.137 1.589c.948.494 1.93.963 2.881 1.411l.958-.712c.228-.17.514-.242.796-.202a1.066 1.066 0 0 1 .479 1.918l-.019.014a145 145 0 0 0 5.419 2.298s-.211-2.545-.64-5.851l-.02.014a1.067 1.067 0 1 1-1.275-1.715l.96-.714a97 97 0 0 0-.524-3.164l-2.137 1.589a1.08 1.08 0 0 1-.796.202 1.066 1.066 0 0 1-.48-1.918l2.952-2.194a39 39 0 0 0-.765-2.982l-3.887 2.89a1.068 1.068 0 0 1-1.277-1.717l4.394-3.267a6.6 6.6 0 0 0-.665-1.17 8.5 8.5 0 0 0-1.013-1.133l-4.416 3.283c-.228.17-.515.243-.796.202a1.066 1.066 0 0 1-.902-1.213c.042-.281.194-.534.423-.704l3.866-2.875a8.57 8.57 0 0 0-4.676-.974 8.62 8.62 0 0 0-7.382 5.489 8.57 8.57 0 0 0-.413 4.758zM45.026 6.964a6 6 0 1 0-12 0 6 6 0 0 0 12 0"/></svg>
